frontend/public/logos/Chase.svg

<?xml version="1.0" encoding="UTF-8" standalone="no"?>
<!-- Created with Inkscape (http://www.inkscape.org/) -->

<svg
   version="1.0"
   width="65.979591"
   height="65.961044"
   id="svg17038"
   sodipodi:docname="Chase.svg"
   inkscape:version="1.3.2 (091e20e, 2023-11-25)"
   xmlns:inkscape="http://www.inkscape.org/namespaces/inkscape"
   xmlns:sodipodi="http://sodipodi.sourceforge.net/DTD/sodipodi-0.dtd"
   xmlns="http://www.w3.org/2000/svg"
   xmlns:svg="http://www.w3.org/2000/svg">
  <sodipodi:namedview
     id="namedview1"
     pagecolor="#ffffff"
     bordercolor="#000000"
     borderopacity="0.25"
     inkscape:showpageshadow="2"
     inkscape:pageopacity="0.0"
     inkscape:pagecheckerboard="0"
     inkscape:deskcolor="#d1d1d1"
     inkscape:zoom="2.41361"
     inkscape:cx="154.54029"
     inkscape:cy="32.938212"
     inkscape:window-width="1512"
     inkscape:window-height="916"
     inkscape:window-x="0"
     inkscape:window-y="38"
     inkscape:window-maximized="1"
     inkscape:current-layer="g17202"
     showguides="false" />
  <defs
     id="defs17040">
    <filter
       inkscape:label="Fast Crop"
       inkscape:auto-region="false"
       inkscape:menu="Fill and Transparency"
       inkscape:menu-tooltip="Does not filter but adds a filter region"
       style="color-interpolation-filters:sRGB"
       id="filter1">
      <feColorMatrix
         type="saturate"
         values="1"
         id="feColorMatrix1" />
    </filter>
  </defs>
  <g
     transform="translate(625.53908,-51.204775)"
     id="layer1">
    <g
       transform="translate(0.4494891,0.3945659)"
       id="logotype">
      <g
         id="g17202">
        <g
           id="logo"
           style="filter:url(#filter1)"
           transform="translate(-241.96121)">
          <path
             d="m -358.86107,56.307005 c -1.0725,0 -1.94124,0.868758 -1.94124,1.940002 V 71.85327 h 35.94124 l -16.3675,-15.545007 -17.6325,-0.0013"
             style="fill:#117aca;fill-rule:nonzero;stroke:none"
             id="logo-ne" />
          <path
             d="m -323.54607,75.969518 c 0,-1.073761 -0.8625,-1.938762 -1.94124,-1.938762 h -13.60251 v 35.942494 l 15.53749,-16.374985 0.006,-17.628747"
             style="fill:#117aca;fill-rule:nonzero;stroke:none"
             id="logo-se" />
          <path
             d="m -343.21106,111.2745 c 1.07,0 1.93874,-0.87 1.93874,-1.94374 V 95.729517 h -35.9425 l 16.36999,15.542483 17.63377,0.002"
             style="fill:#117aca;fill-rule:nonzero;stroke:none"
             id="logo-sw" />
          <path
             d="m -378.52856,91.614507 c 0,1.072503 0.86874,1.946259 1.94374,1.946259 h 13.6 V 57.61577 l -15.54124,16.369991 -0.003,17.628746"
             style="fill:#117aca;fill-rule:nonzero;stroke:none"
             id="logo-nw" />
        </g>
        <g
           id="type" />
      </g>
    </g>
  </g>
</svg>

<?xml version="1.0" encoding="UTF-8" standalone="no"?>
<!-- Created with Inkscape (http://www.inkscape.org/) -->
<svg xmlns:svg="http://www.w3.org/2000/svg" xmlns="http://www.w3.org/2000/svg" version="1.0" width="298.72266" height="55.51717" id="svg17038">
  <defs id="defs17040"/>
  <g transform="translate(620.34041,-56.426733)" id="layer1">
    <g transform="translate(0.4494891,0.3945659)" id="logotype">
      <g id="g17202">
        <g id="logo">
          <path d="M -358.86107,56.307005 C -359.93357,56.307005 -360.80231,57.175763 -360.80231,58.247007 L -360.80231,71.85327 L -324.86107,71.85327 L -341.22857,56.308263 L -358.86107,56.307005" style="fill:#117aca;fill-rule:nonzero;stroke:none" id="logo-ne"/>
          <path d="M -323.54607,75.969518 C -323.54607,74.895757 -324.40857,74.030756 -325.48731,74.030756 L -339.08982,74.030756 L -339.08982,109.97325 L -323.55233,93.598265 L -323.54607,75.969518" style="fill:#117aca;fill-rule:nonzero;stroke:none" id="logo-se"/>
          <path d="M -343.21106,111.2745 C -342.14106,111.2745 -341.27232,110.4045 -341.27232,109.33076 L -341.27232,95.729517 L -377.21482,95.729517 L -360.84483,111.272 L -343.21106,111.2745" style="fill:#117aca;fill-rule:nonzero;stroke:none" id="logo-sw"/>
          <path d="M -378.52856,91.614507 C -378.52856,92.68701 -377.65982,93.560766 -376.58482,93.560766 L -362.98482,93.560766 L -362.98482,57.61577 L -378.52606,73.985761 L -378.52856,91.614507" style="fill:#117aca;fill-rule:nonzero;stroke:none" id="logo-nw"/>
        </g>
        <g id="type">
          <path d="M -543.26981,62.868265 L -543.26981,79.467005 L -566.39481,79.467005 L -566.39481,62.868265 L -574.81732,62.86077 L -574.81732,104.71326 L -566.39481,104.71326 L -566.39481,86.73326 L -543.26981,86.73326 L -543.26981,104.71326 L -534.83357,104.71326 L -534.83357,62.868265 L -543.26981,62.868265" style="opacity:1;fill:#211e1e;fill-rule:nonzero;stroke:none" id="H"/>
          <path d="M -431.22357,62.868265 L -431.22357,104.70327 L -394.27231,104.70327 L -398.95232,97.33827 L -422.77731,97.33827 L -422.77731,86.73326 L -399.70732,86.73326 L -399.70732,79.639505 L -422.77731,79.639505 L -422.77731,70.060762 L -398.99231,70.060762 L -394.40732,62.868265 L -431.22357,62.868265" style="opacity:1;fill:#211e1e;fill-rule:nonzero;stroke:none" id="E"/>
          <path d="M -606.12483,62.858251 C -614.88606,62.858251 -619.31107,68.184503 -619.31107,75.934518 L -619.31107,91.55702 C -619.31107,100.52575 -613.60858,104.71326 -606.16856,104.71326 L -579.74356,104.71076 L -584.64232,97.06077 L -604.53606,97.06077 C -608.76233,97.06077 -610.60357,95.53327 -610.60357,90.803255 L -610.60357,76.629518 C -610.60357,72.057012 -609.05356,70.27326 -604.42357,70.27326 L -584.43482,70.27326 L -579.73107,62.858251 L -606.12483,62.858251" style="opacity:1;fill:#211e1e;fill-rule:nonzero;stroke:none" id="C"/>
          <path d="M -468.18356,62.848257 C -473.24357,62.848257 -478.42982,65.889505 -478.42982,73.712018 L -478.42982,75.722002 C -478.42982,83.877005 -473.43981,86.988252 -468.44731,87.00952 L -450.92356,87.00952 C -449.10357,87.00952 -447.62482,87.312006 -447.62482,90.388255 L -447.62732,93.942007 C -447.67357,96.705755 -449.05232,97.33827 -450.98607,97.33827 L -474.03983,97.33827 L -478.76233,104.70327 L -450.44356,104.70327 C -443.61481,104.70327 -438.97856,101.30576 -438.97856,93.458265 L -438.97856,90.574507 C -438.97856,82.987017 -443.28606,79.402002 -449.96481,79.402002 L -466.69732,79.402002 C -468.55233,79.402002 -469.84482,78.895753 -469.84482,76.148256 L -469.84482,73.254503 C -469.84482,70.914511 -468.95857,70.060762 -466.79732,70.060762 L -444.84232,70.052007 L -440.25357,62.838262 L -468.18356,62.848257" style="opacity:1;fill:#211e1e;fill-rule:nonzero;stroke:none" id="S"/>
          <path d="M -510.36356,62.868265 L -530.20731,104.71076 L -520.82858,104.71076 L -516.96356,96.069502 L -495.39982,96.069502 L -491.54732,104.71076 L -482.12731,104.71076 L -502.01731,62.868265 L -510.36356,62.868265 z M -506.20232,71.555761 L -498.57731,88.947005 L -513.77858,88.947005 L -506.20232,71.555761" style="opacity:1;fill:#211e1e;fill-rule:nonzero;stroke:none" id="A"/>
        </g>
      </g>
    </g>
  </g>
</svg>
